X: 263
T: Behind the Haystack
M:6/8
R:Jig
L:1/8
K:D
"D"d2e fdB|d2e fdB|"A"AFE ~E3|AFE EFA|
"D"d2e fdB|d2e fdB|AFD ~D3|AFD DFA:|
"Bm"~B3 BAF|"A"ABc "D"d2B|"A"AFE ~E3|AFE EFA|
"Bm"~B3 BAF|"A"ABc "Bm"d2B|"D"AFD ~D3|AFD DFA:|
"G"~g3 "D"fgf|"Em"ede "Bm"fdB|"A"AFE ~E3|AFE E2f|
"G"~g3 "D"fgf|"Em"ede "Bm"fdB|"D"AFD ~D3|AFD DFA:|


